frontend/src/assets/icons/message-plus-square.svg

<svg width="24" height="24" viewBox="0 0 24 24" fill="none" xmlns="http://www.w3.org/2000/svg">
<g id="message-plus-square">
<path id="Icon" d="M12 13.5V7.5M9 10.5H15M7 18V20.3355C7 20.8684 7 21.1348 7.10923 21.2716C7.20422 21.3906 7.34827 21.4599 7.50054 21.4597C7.67563 21.4595 7.88367 21.2931 8.29976 20.9602L10.6852 19.0518C11.1725 18.662 11.4162 18.4671 11.6875 18.3285C11.9282 18.2055 12.1844 18.1156 12.4492 18.0613C12.7477 18 13.0597 18 13.6837 18H16.2C17.8802 18 18.7202 18 19.362 17.673C19.9265 17.3854 20.3854 16.9265 20.673 16.362C21 15.7202 21 14.8802 21 13.2V7.8C21 6.11984 21 5.27976 20.673 4.63803C20.3854 4.07354 19.9265 3.6146 19.362 3.32698C18.7202 3 17.8802 3 16.2 3H7.8C6.11984 3 5.27976 3 4.63803 3.32698C4.07354 3.6146 3.6146 4.07354 3.32698 4.63803C3 5.27976 3 6.11984 3 7.8V14C3 14.93 3 15.395 3.10222 15.7765C3.37962 16.8117 4.18827 17.6204 5.22354 17.8978C5.60504 18 6.07003 18 7 18Z" stroke="black" stroke-width="2" stroke-linecap="round" stroke-linejoin="round"/>
</g>
</svg>

<svg xmlns="http://www.w3.org/2000/svg" width="24" height="24" fill="none" viewBox="0 0 24 24">
  <path stroke="#000" stroke-linecap="round" stroke-linejoin="round" stroke-width="2" d="M12 13.5v-6m-3 3h6M7 18v2.335c0 .533 0 .8.11.937a.5.5 0 0 0 .39.188c.176 0 .384-.167.8-.5l2.385-1.908c.487-.39.731-.585 1.002-.724.241-.122.497-.212.762-.267.299-.061.61-.061 1.235-.061H16.2c1.68 0 2.52 0 3.162-.327a3 3 0 0 0 1.311-1.311C21 15.72 21 14.88 21 13.2V7.8c0-1.68 0-2.52-.327-3.162a3 3 0 0 0-1.311-1.311C18.72 3 17.88 3 16.2 3H7.8c-1.68 0-2.52 0-3.162.327a3 3 0 0 0-1.311 1.311C3 5.28 3 6.12 3 7.8V14c0 .93 0 1.395.102 1.777a3 3 0 0 0 2.122 2.12C5.605 18 6.07 18 7 18Z"/>
</svg>
